brandFactory_export/1.Light/Veneno _1Light.svg

<?xml version="1.0" encoding="UTF-8"?>
<svg width="24px" height="24px" viewBox="0 0 24 24" version="1.1" xmlns="http://www.w3.org/2000/svg" xmlns:xlink="http://www.w3.org/1999/xlink">
    <title>1.Light/Veneno _1Light</title>
    <g id="Symbols" stroke="none" stroke-width="1" fill="none" fill-rule="evenodd">
        <g id="1.Light/Veneno-_1Light" fill="#5CB615" fill-rule="nonzero">
            <path d="M11.3310924,22.6453782 C13.0722689,22.6453782 14.1647059,21.9193277 14.5714286,20.5445378 L1.17983193,20.5445378 C1.32773109,21.0487395 1.56302521,21.4756303 1.90252101,21.8016807 C2.48739496,22.3596639 3.34117647,22.6453782 4.44369748,22.6453782 L11.3310924,22.6453782 Z M1.90588235,6.91092437 C1.43193277,7.36470588 1.14621849,7.99663866 1.03865546,8.78991597 L14.7193277,8.78991597 C14.5546218,7.52268908 13.9327731,6.68907563 12.8638655,6.3092437 C12.6218487,6.47731092 12.3260504,6.57478992 12.010084,6.57478992 L3.66386555,6.57478992 C3.36806723,6.57478992 3.09579832,6.48739496 2.86386555,6.3394958 C2.49747899,6.48067227 2.16806723,6.66218487 1.90588235,6.91092437 Z M3.14285714,1.49579832 L3.14285714,5.0789916 C3.14285714,5.36470588 3.37815126,5.59663866 3.66386555,5.59663866 L12.010084,5.59663866 C12.2957983,5.59663866 12.5310924,5.36470588 12.5310924,5.0789916 L12.5310924,1.49579832 C12.5310924,1.21008403 12.2957983,0.978151261 12.010084,0.978151261 L3.66386555,0.978151261 C3.37815126,0.978151261 3.14285714,1.21008403 3.14285714,1.49579832 Z M0.991596639,19.210084 C0.991596639,19.3378151 1.00840336,19.4453782 1.01512605,19.5663866 L14.7327731,19.5663866 C14.7394958,19.4453782 14.7596639,19.3378151 14.7596639,19.210084 L14.7697479,9.77142857 L0.991596639,9.77142857 L0.991596639,19.210084 Z M13.4521008,5.49243697 C14.9378151,6.13445378 15.7546218,7.53613445 15.7546218,9.50588235 L15.7445378,19.2134454 C15.7445378,22.0168067 14.1378151,23.6268908 11.3310924,23.6268908 L4.44369748,23.6268908 C3.07563025,23.6268908 1.98991597,23.2504202 1.21680672,22.507563 C0.413445378,21.7344538 0.00672268908,20.6252101 0.00672268908,19.2134454 L0.00672268908,9.5092437 C0.00672268908,8.09411765 0.416806723,6.98487395 1.22689076,6.21176471 C1.51596639,5.93613445 1.86554622,5.72773109 2.24537815,5.55294118 C2.19495798,5.40504202 2.16134454,5.25042017 2.16134454,5.08571429 L2.16134454,1.50252101 C2.16134454,0.675630252 2.83697479,0.00672268908 3.66722689,0.00672268908 L12.0134454,0.00672268908 C12.8436975,0.00672268908 13.5193277,0.678991597 13.5193277,1.50252101 L13.5193277,5.08571429 C13.5159664,5.22352941 13.4890756,5.35798319 13.4521008,5.49243697 Z M4.66890756,4.9210084 C4.39663866,4.9210084 4.17478992,4.70252101 4.17478992,4.4302521 L4.17478992,2.14453782 C4.17478992,1.87563025 4.39663866,1.65378151 4.66890756,1.65378151 C4.94117647,1.65378151 5.16302521,1.87226891 5.16302521,2.14453782 L5.16302521,4.4302521 C5.16302521,4.70252101 4.94117647,4.9210084 4.66890756,4.9210084 Z M6.77983193,4.9210084 C6.50756303,4.9210084 6.28571429,4.70252101 6.28571429,4.4302521 L6.28571429,2.14453782 C6.28571429,1.87563025 6.50756303,1.65378151 6.77983193,1.65378151 C7.05210084,1.65378151 7.27394958,1.87226891 7.27394958,2.14453782 L7.27394958,4.4302521 C7.27394958,4.70252101 7.05210084,4.9210084 6.77983193,4.9210084 Z M8.89411765,4.9210084 C8.62184874,4.9210084 8.4,4.70252101 8.4,4.4302521 L8.4,2.14453782 C8.4,1.87563025 8.62184874,1.65378151 8.89411765,1.65378151 C9.16638655,1.65378151 9.38823529,1.87226891 9.38823529,2.14453782 L9.38823529,4.4302521 C9.38487395,4.70252101 9.16638655,4.9210084 8.89411765,4.9210084 Z M11.005042,4.9210084 C10.7327731,4.9210084 10.5109244,4.70252101 10.5109244,4.4302521 L10.5109244,2.14453782 C10.5109244,1.87563025 10.7327731,1.65378151 11.005042,1.65378151 C11.2773109,1.65378151 11.4991597,1.87226891 11.4991597,2.14453782 L11.4991597,4.4302521 C11.4991597,4.70252101 11.2773109,4.9210084 11.005042,4.9210084 Z M9.78487395,16.9142857 C10.5882353,16.4201681 10.9983193,15.5596639 10.9983193,14.3596639 C10.9983193,11.6773109 8.96134454,11.3445378 8.08739496,11.3243697 L7.76134454,11.3210084 C6.90084034,11.3243697 4.89747899,11.6268908 4.89747899,14.3394958 C4.89747899,15.5596639 5.30420168,16.4268908 6.10756303,16.9142857 L6.34285714,17.0588235 L6.34285714,17.589916 C6.34285714,17.7680672 6.38319328,17.8957983 6.4605042,17.9630252 C6.5512605,18.0436975 6.70252101,18.0840336 6.90756303,18.0840336 L9.00504202,18.0840336 C9.14621849,18.0840336 9.33445378,18.0638655 9.43865546,17.9697479 C9.53613445,17.8823529 9.55630252,17.7176471 9.55630252,17.589916 L9.55630252,17.0588235 L9.78487395,16.9142857 L9.78487395,16.9142857 Z M8.11092437,10.3428571 C8.75630252,10.3563025 11.9831933,10.6184874 11.9831933,14.3563025 C11.9831933,16.107563 11.2436975,17.0689076 10.5378151,17.5865546 C10.5378151,18.1747899 10.2991597,18.5109244 10.097479,18.6890756 C9.82857143,18.9344538 9.45882353,19.0588235 8.99831933,19.0588235 L6.90084034,19.0588235 C6.44033613,19.0588235 6.06722689,18.9344538 5.79495798,18.6857143 C5.59663866,18.5109244 5.3512605,18.1747899 5.3512605,17.589916 C4.64537815,17.0756303 3.90588235,16.1109244 3.90588235,14.3361345 C3.90588235,10.5445378 7.1092437,10.3394958 7.7512605,10.3361345 L8.11092437,10.3428571 Z M7.43529412,15.2840336 C7.33781513,15.3815126 7.21344538,15.4285714 7.08571429,15.4285714 C6.96134454,15.4285714 6.83361345,15.3815126 6.73613445,15.2840336 L6.44705882,14.9983193 L6.16134454,15.2840336 C6.06386555,15.3815126 5.9394958,15.4285714 5.81176471,15.4285714 C5.68739496,15.4285714 5.55966387,15.3815126 5.46218487,15.2840336 C5.27058824,15.092437 5.27058824,14.7831933 5.46218487,14.5915966 L5.74789916,14.3058824 L5.46218487,14.0201681 C5.27058824,13.8285714 5.27058824,13.5193277 5.46218487,13.3277311 C5.65378151,13.1361345 5.96638655,13.1361345 6.15798319,13.3277311 L6.44369748,13.6134454 L6.73277311,13.3277311 C6.92436975,13.1361345 7.23697479,13.1361345 7.42857143,13.3277311 C7.62016807,13.5193277 7.62016807,13.8285714 7.42857143,14.0201681 L7.1394958,14.3058824 L7.42857143,14.5915966 C7.62689076,14.7831933 7.62689076,15.092437 7.43529412,15.2840336 L7.43529412,15.2840336 Z M10.1815126,14.3058824 L10.4705882,14.5915966 C10.6621849,14.7831933 10.6621849,15.092437 10.4705882,15.2840336 C10.3731092,15.3815126 10.2487395,15.4285714 10.1210084,15.4285714 C9.99663866,15.4285714 9.86890756,15.3815126 9.77142857,15.2840336 L9.48235294,14.9983193 L9.19327731,15.2840336 C9.09579832,15.3815126 8.97142857,15.4285714 8.84369748,15.4285714 C8.71932773,15.4285714 8.59159664,15.3815126 8.49411765,15.2840336 C8.30252101,15.092437 8.30252101,14.7831933 8.49411765,14.5915966 L8.78319328,14.3058824 L8.49411765,14.0201681 C8.30252101,13.8285714 8.30252101,13.5193277 8.49411765,13.3277311 C8.68571429,13.1361345 8.99831933,13.1361345 9.18991597,13.3277311 L9.4789916,13.6134454 L9.76806723,13.3277311 C9.95966387,13.1361345 10.2722689,13.1361345 10.4638655,13.3277311 C10.6554622,13.5193277 10.6554622,13.8285714 10.4638655,14.0201681 L10.1815126,14.3058824 L10.1815126,14.3058824 Z M8.65882353,15.989916 L8.80672269,16.3361345 C8.91428571,16.5848739 8.79327731,16.8705882 8.54453782,16.9781513 C8.48403361,17.005042 8.41680672,17.0151261 8.35294118,17.0151261 C8.17478992,17.0151261 8.01344538,16.9109244 7.92605042,16.7462185 C7.83865546,16.907563 7.67731092,17.0151261 7.49915966,17.0151261 C7.43529412,17.0151261 7.37142857,17.0016807 7.30756303,16.9781513 C7.05546218,16.8739496 6.93781513,16.5848739 7.04201681,16.3361345 L7.18991597,15.989916 C7.29411765,15.7378151 7.58655462,15.6201681 7.83529412,15.7277311 C7.86890756,15.7411765 7.89579832,15.7680672 7.92268908,15.7882353 C7.95294118,15.7680672 7.97647059,15.7445378 8.01008403,15.7277311 C8.26218487,15.6235294 8.55462185,15.7411765 8.65882353,15.989916 L8.65882353,15.989916 Z" id="Veneno-_1Light"></path>
        </g>
    </g>
</svg>

<svg width="24" height="24" viewBox="0 0 24 24" xmlns="http://www.w3.org/2000/svg"><path d="M11.331 22.645c1.741 0 2.834-.726 3.24-2.1H1.18c.148.504.383.93.723 1.257.584.558 1.438.843 2.54.843h6.888zM1.906 6.911c-.474.454-.76 1.086-.867 1.879h13.68c-.164-1.267-.786-2.1-1.855-2.48a1.494 1.494 0 01-.854.265H3.664c-.296 0-.568-.088-.8-.236-.367.142-.696.323-.958.572zm1.237-5.415v3.583a.52.52 0 00.52.518h8.347a.52.52 0 00.521-.518V1.496a.52.52 0 00-.52-.518H3.663a.52.52 0 00-.521.518zM.992 19.21c0 .128.016.235.023.356h13.718c.006-.12.027-.228.027-.356l.01-9.439H.992v9.44zm12.46-13.718c1.486.642 2.303 2.044 2.303 4.014l-.01 9.707c0 2.804-1.607 4.414-4.414 4.414H4.444c-1.368 0-2.454-.377-3.227-1.12-.804-.773-1.21-1.882-1.21-3.294V9.51c0-1.415.41-2.524 1.22-3.297.289-.276.639-.484 1.018-.66a1.438 1.438 0 01-.084-.466V1.503c0-.827.676-1.496 1.506-1.496h8.346c.83 0 1.506.672 1.506 1.496v3.583c-.003.138-.03.272-.067.406zM4.67 4.921a.492.492 0 01-.494-.49V2.144a.494.494 0 01.988 0V4.43c0 .273-.222.491-.494.491zm2.11 0a.492.492 0 01-.493-.49V2.144a.494.494 0 01.988 0V4.43c0 .273-.222.491-.494.491zm2.115 0a.492.492 0 01-.494-.49V2.144a.494.494 0 01.988 0V4.43a.494.494 0 01-.494.491zm2.111 0a.492.492 0 01-.494-.49V2.144a.494.494 0 01.988 0V4.43c0 .273-.222.491-.494.491zm-1.22 11.993c.803-.494 1.213-1.354 1.213-2.554 0-2.683-2.037-3.015-2.91-3.036l-.327-.003c-.86.003-2.864.306-2.864 3.018 0 1.22.407 2.088 1.21 2.575l.236.145v.53c0 .18.04.307.118.374.09.08.242.121.447.121h2.097c.141 0 .33-.02.434-.114.097-.088.117-.252.117-.38v-.531l.229-.145zM8.11 10.343c.645.013 3.872.275 3.872 4.013 0 1.752-.74 2.713-1.445 3.23 0 .589-.239.925-.44 1.103-.27.245-.64.37-1.1.37H6.901c-.46 0-.834-.125-1.106-.373-.198-.175-.444-.511-.444-1.096-.706-.514-1.445-1.48-1.445-3.254 0-3.791 3.203-3.997 3.845-4l.36.007zm-.676 4.941a.494.494 0 01-.7 0l-.288-.286-.286.286a.494.494 0 01-.7 0 .489.489 0 01.001-.692l.286-.286-.286-.286a.489.489 0 010-.692.493.493 0 01.696 0l.286.285.289-.285a.493.493 0 01.696 0c.191.191.191.5 0 .692l-.29.286.29.286c.198.191.198.5.006.692zm2.747-.978l.289.286a.489.489 0 01-.35.837.494.494 0 01-.35-.145l-.289-.286-.289.286a.494.494 0 01-.7 0 .489.489 0 01.001-.692l.29-.286-.29-.286a.489.489 0 010-.692.493.493 0 01.696 0l.289.285.29-.285a.493.493 0 01.695 0c.191.191.191.5 0 .692l-.282.286zM8.659 15.99l.148.346a.49.49 0 01-.454.68.487.487 0 01-.427-.27.494.494 0 01-.427.27.49.49 0 01-.457-.679l.148-.347a.49.49 0 01.645-.262c.034.013.06.04.088.06.03-.02.053-.043.087-.06a.498.498 0 01.649.262z" fill="#5CB615" fill-rule="nonzero"/></svg>
